!!!COM: Palestrina, Giovanni Perluigi da
!!!OPR: Missa Pater noster
!!!OMD: Sanctus
!!!OTL: First Section
**kern	**kern	**kern	**kern
*Ibass	*Itenor	*Icalto	*Icant
!Bassus	!Tenor	!Altus	!Cantus
*clefF4	*clefGv2	*clefG2	*clefG2
*k[]	*k[]	*k[]	*k[]
*D:dor	*D:dor	*D:dor	*D:dor
*M4/2	*M4/2	*M4/2	*M4/2
=1	=1	=1	=1
2r	0c	0r	0r
4F	.	.	.
4G	.	.	.
4A	.	.	.
4B	.	.	.
[2c	.	.	.
=2	=2	=2	=2
2c]	1d	1r	0r
2B	.	.	.
[1c	1e	2r	.
.	.	4c	.
.	.	4d	.
=3	=3	=3	=3
1c]	2e	4e	1r
.	.	4f	.
.	2e	2g	.
2r	[1f	[1a	[1cc
4F	.	.	.
4G	.	.	.
=4	=4	=4	=4
4A	2f]	2a]	1cc]
4B	.	.	.
1c	2e	2g	.
.	1d	2r	1dd
2B	.	2g	.
=5	=5	=5	=5
1c	2r	4g	1.ee
.	.	4f	.
.	4c	4e	.
.	4d	4d	.
1r	4e	1c	.
.	4f	.	.
.	2g	.	2ee
=6	=6	=6	=6
0F	0a	2r	1.ff
.	.	4f	.
.	.	4g	.
.	.	4a	.
.	.	4b	.
.	.	[2cc	2ee
=7	=7	=7	=7
1G	2r	2cc]	1dd
.	4g	2b	.
.	4f	.	.
[1A	4e	4cc	1cc
.	4d	4b	.
.	2c	4a	.
.	.	4g	.
=8	=8	=8	=8
2A]	4f	4a	2r
.	4e	4g	.
2A	2a	2f	4cc
.	.	.	4dd
[1c	4g	2e	4ee
.	4f	.	4ff
.	4e	4c	2gg
.	4d	4d	.
=9	=9	=9	=9
2c]	2c	4e	2ee
.	.	4f	.
2B	2d	1g	2.dd
1A	2e	.	.
.	.	.	4cc
.	2c	2f#	[2cc
=10	=10	=10	=10
1G	1d	1g	2cc]
.	.	.	2b
2r	1c	1e	[1cc
[2A	.	.	.
=11	=11	=11	=11
2A]	2r	2f#	2cc]
2G	1d	2g	2b
1A	.	2e	1a
.	2c	[2a	.
=12	=12	=12	=12
1B-	1d	2a]	2r
.	.	2g	1dd
1A	1e	1a	.
.	.	.	2cc
=13	=13	=13	=13
4D	1d	1a	1ff
4E	.	.	.
4F	.	.	.
4G	.	.	.
4A	1c	1a	1ee
4B	.	.	.
4c	.	.	.
4A	.	.	.
=14	=14	=14	=14
4B	1d	1r	1dd
4c	.	.	.
1d	.	.	.
.	1e	2r	1r
2c	.	[2a	.
=15	=15	=15	=15
2d	2f	2a]	2r
2B-	4e	2g	1dd
.	4d	.	.
1A	1e	1a	.
.	.	.	2cc
=16	=16	=16	=16
1G	2r	1b-	1dd
.	1d	.	.
1r	.	1a	1ee
.	2c	.	.
=17	=17	=17	=17
0r	2f	4d	1dd
.	.	4e	.
.	4d	4f	.
.	4e	4g	.
.	4f	4a	1cc
.	4g	4b	.
.	2a	4cc	.
.	.	4a	.
=18	=18	=18	=18
0r	2g	4b	1dd
.	.	4cc	.
.	2f	1dd	.
.	2g	.	1ee
.	2a	2cc	.
=19	=19	=19	=19
1r	1d	2b	1dd
.	.	1a	.
2r	1e	.	2.b
[2E	.	4g	.
.	.	4f	4a
=20	=20	=20	=20
2E]	1r	2g	4b
.	.	.	4cc
2D	.	2f	2dd
1E	2r	2.e	2cc
.	[2e	.	[2b
.	.	4d	.
=21	=21	=21	=21
1F	2e]	2c	4b]
.	.	.	4a
.	2d	4B	1a
.	.	4A	.
1E	1e	1B	.
.	.	.	2g
=22	=22	=22	=22
1D	1f	2r	2.a
.	.	1a	.
.	.	.	4b
1E	1e	.	2cc
.	.	2g	2b
=23	=23	=23	=23
1F	4A	1a	2r
.	4B	.	.
.	4c	.	1a
.	4d	.	.
1E	4e	2cc	.
.	4f	.	.
.	4g	2b	2g
.	4e	.	.
=24	=24	=24	=24
0r	4f	2a	1a
.	4g	.	.
.	1a	2f	.
.	.	1e	2cc
.	2g#	.	2b
=25	=25	=25	=25
2r	1a	4A	1cc
.	.	4B	.
1A	.	4c	.
.	.	4d	.
.	2r	4e	2cc
.	.	4f	.
2G	[2d	2g	2b
=26	=26	=26	=26
1A	2d]	2f	2r
.	2c	2e	1a
1B-	1d	2r	.
.	.	[2d	2g
=27	=27	=27	=27
1A	2f	2d]	1a
.	2e	2c	.
1G	2r	2d	1b-
.	[2d	2g	.
=28	=28	=28	=28
1A	2d]	2e	1a
.	2c	2.f	.
1B-	1d	.	4d
.	.	4e	4e
.	.	2d	4f
.	.	.	4g
=29	=29	=29	=29
1A	1.e	4c	4a
.	.	4d	4b
.	.	4e	4cc
.	.	4f	4a
1G	.	4g	4b
.	.	4a	4cc
.	[2d	[2b-	4dd
.	.	.	4ee
=30	=30	=30	=30
1A	2d]	4b-]	2ff
.	.	4a	.
.	2c	1a	2.ee
1B-	1d	.	.
.	.	.	4dd
.	.	2g	[2dd
=31	=31	=31	=31
0A	0e	0a	2dd]
.	.	.	4cc#
.	.	.	4b
.	.	.	1cc#
=32	=32	=32	=32
0D	0d	0f#	0dd
*-	*-	*-	*-
!!!CDT: 1525/^1526/-1594/2/2
!!!OCY: Italia
!!!AGN: Mass (Paraphrase)
!!!AST: renaissance, vocal
!!!ASW: Prayer
!!!PWK: Masses, Book 10
!!!RNB: Cadence finals: A
!!!YOR: Le Opere Complete, v. 27, p. 199
!!!YOO: Rome, Italy: Fratelli Scalera
!!!END: 1992//
!!!EED: John Miller
!!!YEC: Copyright 2000, John Miller
!!!YEN: United States of America
!!!YEM: Rights to all derivative electronic formats reserved.
!!!YEM: Refer to licensing agreement for further details.
!!!YEM: This file must be accompanied by the licensing agreement.
!!!YEM: A copy of the licensing agreement may be found at http://www.music-cog.ohio-state.edu/HumdrumDatabases/Palestrina/license.txt
!!!EMD: converted to Humdrum by Bret Aarden
